X: 41822
T: Vig The
R: jig
M: 6/8
K: Dmajor
|:d>dd fed|BGG A2f|fdd fga|efd e3|
a2f fed|BGG A2f|a2g gfd|eBc d3:|
|:c2d dee|ecA ecA|dcd def|dcd def|
c2d dee|ecA ecA|a2g gfd|eBc d3:|

